static/images/nav-main-logo-16x9.svg

<svg width="360" height="203" viewBox="0 0 360 203" fill="none" xmlns="http://www.w3.org/2000/svg">
<g clip-path="url(#clip0)">
<rect x="-5" y="-4" width="212" height="213" fill="#3066FF"/>
<path d="M369 -64H-9V209H369V-64Z" fill="#FBF5F1"/>
<path d="M368 50.6667C341.302 59.1111 308.614 58.366 279.691 57L96.9103 63.2091C59.7724 60.9739 28.1111 44.8301 -8 38V209H368V50.6667Z" fill="#FFDAD8"/>
<path d="M368.828 95.9859C360.592 99.2043 351.84 100.195 342.574 98.9567C331.42 97.3475 321.467 92.3962 310.142 91.2821C296.071 89.7967 282.343 94.6243 268.272 95.367C253.172 96.2335 238.071 92.7675 222.97 92.8913C208.728 93.0151 195 96.3573 181.101 98.3378C162.74 100.937 143.692 101.185 125.331 98.9567C115.035 97.7189 104.74 95.7383 94.2722 95.2432C82.6036 94.7481 70.9349 96.2335 59.2663 96.8524C43.9941 97.7189 7.44379 93.1389 -8 93.1389V209H369L368.828 95.9859Z" fill="#FFBFA8"/>
<path d="M-8 120.773V209H368V118.425C344.896 124.233 319.224 122.132 295.093 118.92C271.133 115.707 246.66 111.506 222.358 113.359C205.415 114.718 188.814 118.92 171.7 119.043C155.612 119.167 139.867 115.707 123.951 113.854C103.414 111.382 82.3632 111.382 61.9973 113.854C40.9467 116.448 13.2217 121.638 -8 120.773Z" fill="#FFDFAF"/>
<path d="M368 148.662C348.661 148.662 328.808 144.96 309.64 142.616C277.808 138.791 245.12 139.161 213.458 143.726C195.66 146.317 178.203 150.143 160.233 152.24C140.723 154.461 120.87 154.585 101.36 152.61C84.2458 150.76 67.4738 147.428 50.3596 145.33C33.2453 143.356 8.42968 142.862 -8 146.811V209H368V148.662Z" fill="#FEF0A5"/>
<path d="M274.715 -61.8905C272.958 -58.8843 265.803 -49.5926 261.461 -44.2354C257.06 -38.8234 253.153 -32.9389 248.584 -27.5898C240.695 -18.4382 231.614 -9.32951 223.013 -0.942441C214.472 7.3899 205.245 15.8113 196.093 23.7238C188.466 30.327 180.614 30.556 171.222 32.4916C161.717 34.4231 151.665 35.7666 141.937 37.5764C134.384 38.953 124.657 45.4806 115.324 48.9531C106.337 52.2675 95.2696 53.4038 85.7789 54.938C81.0913 55.6788 72.9357 53.2822 71.3274 55.3274C67.3969 60.3016 75.2862 65.3601 80.7562 64.9885C86.4533 64.6252 90.8403 65.9198 99.8626 64.7667C105.458 64.0586 113.947 58.7937 121.958 60.4462C127.489 61.5547 134.033 61.3355 143.484 59.3452C142.088 61.7959 139.111 63.9624 135.903 66.2343C134.038 67.5313 129.21 70.5974 126.217 73.2181C117.529 80.8631 113.161 85.3668 117.229 89.2078C120.141 91.9841 129.78 91.0805 138.954 82.5436C144.783 76.9556 158.879 70.642 167.734 70.9607C182.437 71.4899 190.443 67.0034 203.295 58.9398C216.438 50.6594 227.037 38.877 240.236 30.6554C247.503 26.1423 253.739 20.2848 261.063 15.7738C267.749 11.6377 266.743 12.7383 272.19 8.27342L274.715 -61.8905Z" fill="white"/>
<path d="M170.777 137.98H190.064V143.249H183.425V162.326H177.523V143.249H170.883V137.98H170.777Z" fill="#4F4C6E"/>
<path d="M221.999 145.041C222.632 143.46 223.58 142.09 224.739 141.036C225.899 139.877 227.269 139.034 228.955 138.401C230.536 137.769 232.222 137.453 234.119 137.453C236.017 137.453 237.703 137.769 239.389 138.401C240.97 139.034 242.34 139.877 243.605 141.036C244.764 142.195 245.713 143.565 246.345 145.041C246.977 146.622 247.294 148.308 247.294 150.205C247.294 152.102 246.977 153.789 246.345 155.37C245.713 156.95 244.764 158.321 243.605 159.48C242.446 160.639 241.075 161.588 239.389 162.22C237.808 162.852 236.017 163.169 234.119 163.169C232.222 163.169 230.431 162.852 228.85 162.22C227.269 161.588 225.899 160.639 224.634 159.48C223.475 158.321 222.526 156.95 221.894 155.37C221.261 153.789 220.945 152.102 220.945 150.205C221.051 148.308 221.367 146.622 221.999 145.041ZM228.112 153.999C228.639 155.053 229.482 156.002 230.536 156.529C231.59 157.161 232.749 157.477 234.119 157.477C235.49 157.477 236.649 157.161 237.703 156.529C238.757 155.896 239.495 155.053 240.127 153.999C240.759 152.945 240.97 151.575 240.97 150.205C240.97 148.73 240.654 147.465 240.127 146.411C239.6 145.357 238.757 144.409 237.703 143.882C236.649 143.249 235.49 142.933 234.014 142.933C232.644 142.933 231.485 143.249 230.431 143.882C229.377 144.514 228.639 145.357 228.007 146.411C227.48 147.465 227.164 148.835 227.164 150.205C227.269 151.681 227.585 152.945 228.112 153.999Z" fill="#4F4C6E"/>
<path d="M152.544 156.95C153.493 157.688 154.547 158.004 155.811 158.004C157.814 158.004 158.762 157.267 158.762 155.686C158.762 154.948 158.552 154.421 158.13 153.999C157.708 153.578 157.076 153.262 156.338 152.945C155.601 152.629 154.757 152.313 153.809 151.892C153.177 151.681 152.544 151.365 151.806 150.943C151.069 150.521 150.331 150.1 149.593 149.467C148.855 148.835 148.328 148.203 147.907 147.36C147.485 146.516 147.274 145.463 147.274 144.303C147.274 142.933 147.591 141.774 148.328 140.72C149.066 139.666 150.12 138.928 151.385 138.296C152.65 137.769 154.125 137.453 155.811 137.453C157.603 137.453 159.079 137.769 160.238 138.296C161.397 138.823 162.451 139.561 163.189 140.404C163.927 141.247 164.454 142.09 164.77 142.933L160.343 145.463C159.816 144.514 159.184 143.882 158.552 143.355C157.814 142.828 157.076 142.617 156.128 142.617C155.284 142.617 154.547 142.828 154.125 143.144C153.598 143.46 153.387 143.987 153.387 144.619C153.387 145.146 153.598 145.673 154.125 146.095C154.652 146.516 155.39 146.833 156.233 147.149C157.076 147.465 158.025 147.781 158.973 148.203C160.132 148.624 161.186 149.151 162.135 149.784C163.084 150.416 163.821 151.259 164.348 152.208C164.875 153.156 165.191 154.316 165.191 155.791C165.191 158.215 164.348 160.112 162.662 161.482C160.976 162.747 158.762 163.485 155.917 163.485C154.441 163.485 153.071 163.169 151.701 162.642C150.436 162.115 149.277 161.377 148.223 160.323C147.274 159.374 146.431 158.215 146.01 156.845L150.12 153.999C150.752 155.159 151.596 156.213 152.544 156.95Z" fill="#4F4C6E"/>
<path d="M113.759 145.041C114.391 143.46 115.34 142.09 116.499 141.036C117.659 139.877 119.029 139.034 120.715 138.401C122.296 137.769 123.982 137.453 125.879 137.453C127.776 137.453 129.463 137.769 131.149 138.401C132.73 139.034 134.1 139.877 135.365 141.036C136.524 142.195 137.473 143.565 138.105 145.041C138.737 146.622 139.053 148.308 139.053 150.205C139.053 152.102 138.737 153.789 138.105 155.37C137.473 156.95 136.524 158.321 135.365 159.48C134.205 160.639 132.835 161.588 131.149 162.22C129.568 162.852 127.776 163.169 125.879 163.169C123.982 163.169 122.19 162.852 120.61 162.22C119.029 161.588 117.659 160.639 116.394 159.48C115.235 158.321 114.286 156.95 113.654 155.37C113.021 153.789 112.705 152.102 112.705 150.205C112.81 148.308 113.127 146.622 113.759 145.041ZM119.872 153.999C120.399 155.053 121.242 156.002 122.296 156.529C123.35 157.161 124.509 157.477 125.879 157.477C127.249 157.477 128.409 157.161 129.463 156.529C130.517 155.896 131.254 155.053 131.887 153.999C132.519 152.945 132.73 151.575 132.73 150.205C132.73 148.73 132.414 147.465 131.887 146.411C131.36 145.357 130.517 144.409 129.463 143.882C128.409 143.249 127.249 142.933 125.774 142.933C124.404 142.933 123.244 143.249 122.19 143.882C121.137 144.514 120.399 145.357 119.766 146.411C119.239 147.465 118.923 148.835 118.923 150.205C119.029 151.681 119.345 152.945 119.872 153.999Z" fill="#4F4C6E"/>
<path d="M202.713 157.583H213.252V162.431H202.713H200.921H197.021V137.98H200.921H202.713H213.252V142.828H202.713V147.149H212.62V151.892H202.713V157.583ZM204.504 135.134L201.553 133.659L206.823 128.073L210.828 129.97L204.504 135.134Z" fill="#4F4C6E"/>
<path d="M217.252 88.0237H221.995L210.085 113.74L198.176 88.0237H202.918L210.085 105.203L217.252 88.0237Z" fill="#4F4C6E"/>
<path d="M177.206 112.475H173.096V88.0237H175.52H177.206H180.579C182.37 88.0237 183.846 88.3399 185.216 88.9722C186.481 89.6046 187.535 90.4477 188.272 91.6071C189.01 92.7664 189.326 94.0311 189.326 95.612C189.326 97.4037 188.799 98.8792 187.851 100.144C186.902 101.409 185.532 102.252 183.846 102.779L190.696 112.475H185.743L179.525 103.2H176.995V112.475H177.206ZM180.473 99.8277C181.843 99.8277 183.003 99.5116 183.846 98.7738C184.689 98.0361 185.111 97.0875 185.111 95.7174C185.111 94.4527 184.689 93.3987 183.846 92.661C183.003 91.9232 181.843 91.6071 180.473 91.6071H177.206V99.8277H180.473V99.8277Z" fill="#4F4C6E"/>
<path d="M150.329 108.786H161.079V112.37H150.329H148.854H146.324V88.0237H148.854H150.329H161.079V91.6071H150.329V97.5091H160.447V101.092H150.329V108.786Z" fill="#4F4C6E"/>
<path d="M117.552 88.0237V97.4037H129.777V88.0237H133.888V112.37H129.777V101.198H117.552V112.37H113.441V88.0237H117.552Z" fill="#4F4C6E"/>
<path d="M235.802 108.786H246.552V112.369H235.802H234.326H231.797V88.0235H234.326H235.802H246.552V91.6069H235.802V97.5089H245.92V101.092H235.802V108.786ZM237.804 85.3887L235.696 84.1239L240.966 78.5381L244.128 80.119L237.804 85.3887Z" fill="#4F4C6E"/>
<path d="M115.551 62.5198H126.723V64.3114H115.551H114.603H113.549V39.9656H114.603H115.551H126.723V41.7573H115.551V50.0833H126.091V51.875H115.551V62.5198Z" fill="#4F4C6E"/>
<path d="M227.268 64.3098H225.16L235.91 39.0154L246.66 64.3098H244.553L241.18 56.0891H230.641L227.268 64.3098ZM240.337 54.2974L235.91 43.4419L231.378 54.2974H240.337Z" fill="#4F4C6E"/>
<path d="M187.008 64.3098H185.111L187.957 39.0154L197.759 57.7754L207.56 39.0154L210.406 64.3098H208.509L206.401 45.1282L197.864 61.4642L189.327 45.1282L187.008 64.3098Z" fill="#4F4C6E"/>
<path d="M145.696 64.3098H143.799L146.644 39.0154L156.446 57.7754L166.248 39.0154L169.093 64.3098H167.196L165.088 45.1282L156.551 61.4642L148.015 45.1282L145.696 64.3098Z" fill="#4F4C6E"/>
</g>
<defs>
<clipPath id="clip0">
<rect width="360" height="202.5" fill="white"/>
</clipPath>
</defs>
</svg>

<svg width="360" height="203" fill="none" xmlns="http://www.w3.org/2000/svg"><g clip-path="url(#clip0)"><path fill="#3066FF" d="M-5-4h212v213H-5z"/><path d="M369-64H-9v273h378V-64z" fill="#FBF5F1"/><path d="M368 50.667c-26.698 8.444-59.386 7.699-88.309 6.333l-182.78 6.21C59.771 60.973 28.11 44.83-8 38v171h376V50.667z" fill="#FFDAD8"/><path d="M368.828 95.986c-8.236 3.218-16.988 4.209-26.254 2.97-11.154-1.609-21.107-6.56-32.432-7.674-14.071-1.485-27.799 3.342-41.87 4.085-15.1.867-30.201-2.6-45.302-2.476-14.242.124-27.97 3.466-41.869 5.447-18.361 2.599-37.409 2.847-55.77.619-10.296-1.238-20.591-3.219-31.059-3.714-11.668-.495-23.337.99-35.006 1.61C43.994 97.718 7.444 93.138-8 93.138V209h377l-.172-113.014z" fill="#FFBFA8"/><path d="M-8 120.773V209h376v-90.575c-23.104 5.808-48.776 3.707-72.907.495-23.96-3.213-48.433-7.414-72.735-5.561-16.943 1.359-33.544 5.561-50.658 5.684-16.088.124-31.833-3.336-47.749-5.189-20.537-2.472-41.588-2.472-61.954 0-21.05 2.594-48.775 7.784-69.997 6.919z" fill="#FFDFAF"/><path d="M368 148.662c-19.339 0-39.192-3.702-58.36-6.046-31.832-3.825-64.52-3.455-96.182 1.11-17.798 2.591-35.255 6.417-53.225 8.514a276.147 276.147 0 01-58.873.37c-17.114-1.85-33.886-5.182-51-7.28-17.115-1.974-41.93-2.468-58.36 1.481V209h376v-60.338z" fill="#FEF0A5"/><path d="M274.715-61.89c-1.757 3.006-8.912 12.297-13.254 17.655-4.401 5.412-8.308 11.296-12.877 16.645-7.889 9.152-16.97 18.26-25.571 26.648-8.541 8.332-17.768 16.753-26.92 24.666-7.627 6.603-15.479 6.832-24.871 8.768-9.505 1.931-19.557 3.275-29.285 5.084-7.553 1.377-17.28 7.905-26.613 11.377-8.987 3.314-20.054 4.45-29.545 5.985-4.688.74-12.843-1.656-14.452.39-3.93 4.974 3.96 10.032 9.43 9.66 5.696-.363 10.083.932 19.106-.221 5.595-.708 14.084-5.973 22.095-4.32 5.531 1.108 12.075.889 21.526-1.102-1.396 2.45-4.373 4.617-7.581 6.89-1.865 1.296-6.693 4.362-9.686 6.983-8.688 7.645-13.056 12.149-8.988 15.99 2.912 2.776 12.551 1.873 21.725-6.664 5.829-5.588 19.925-11.902 28.78-11.583 14.703.529 22.709-3.958 35.561-12.021 13.143-8.28 23.742-20.063 36.941-28.285 7.267-4.513 13.503-10.37 20.827-14.881 6.686-4.136 5.68-3.036 11.127-7.5l2.525-70.165z" fill="#fff"/><path d="M170.777 137.98h19.287v5.269h-6.639v19.077h-5.902v-19.077h-6.64v-5.269h-.106zm51.222 7.061c.633-1.581 1.581-2.951 2.74-4.005 1.16-1.159 2.53-2.002 4.216-2.635 1.581-.632 3.267-.948 5.164-.948 1.898 0 3.584.316 5.27.948a13.544 13.544 0 014.216 2.635c1.159 1.159 2.108 2.529 2.74 4.005.632 1.581.949 3.267.949 5.164 0 1.897-.317 3.584-.949 5.165-.632 1.58-1.581 2.951-2.74 4.11-1.159 1.159-2.53 2.108-4.216 2.74-1.581.632-3.372.949-5.27.949-1.897 0-3.688-.317-5.269-.949-1.581-.632-2.951-1.581-4.216-2.74-1.159-1.159-2.108-2.53-2.74-4.11-.633-1.581-.949-3.268-.949-5.165.106-1.897.422-3.583 1.054-5.164zm6.113 8.958c.527 1.054 1.37 2.003 2.424 2.53 1.054.632 2.213.948 3.583.948 1.371 0 2.53-.316 3.584-.948 1.054-.633 1.792-1.476 2.424-2.53.632-1.054.843-2.424.843-3.794 0-1.475-.316-2.74-.843-3.794-.527-1.054-1.37-2.002-2.424-2.529-1.054-.633-2.213-.949-3.689-.949-1.37 0-2.529.316-3.583.949-1.054.632-1.792 1.475-2.424 2.529-.527 1.054-.843 2.424-.843 3.794.105 1.476.421 2.74.948 3.794zm-75.568 2.951c.949.738 2.003 1.054 3.267 1.054 2.003 0 2.951-.737 2.951-2.318 0-.738-.21-1.265-.632-1.687-.422-.421-1.054-.737-1.792-1.054-.737-.316-1.581-.632-2.529-1.053-.632-.211-1.265-.527-2.003-.949-.737-.422-1.475-.843-2.213-1.476-.738-.632-1.265-1.264-1.686-2.107-.422-.844-.633-1.897-.633-3.057 0-1.37.317-2.529 1.054-3.583.738-1.054 1.792-1.792 3.057-2.424 1.265-.527 2.74-.843 4.426-.843 1.792 0 3.268.316 4.427.843 1.159.527 2.213 1.265 2.951 2.108.738.843 1.265 1.686 1.581 2.529l-4.427 2.53c-.527-.949-1.159-1.581-1.791-2.108-.738-.527-1.476-.738-2.424-.738-.844 0-1.581.211-2.003.527-.527.316-.738.843-.738 1.475 0 .527.211 1.054.738 1.476.527.421 1.265.738 2.108 1.054.843.316 1.792.632 2.74 1.054a14.74 14.74 0 013.162 1.581 6.933 6.933 0 012.213 2.424c.527.948.843 2.108.843 3.583 0 2.424-.843 4.321-2.529 5.691-1.686 1.265-3.9 2.003-6.745 2.003-1.476 0-2.846-.316-4.216-.843a10.585 10.585 0 01-3.478-2.319c-.949-.949-1.792-2.108-2.213-3.478l4.11-2.846c.632 1.16 1.476 2.214 2.424 2.951zm-38.785-11.909c.632-1.581 1.581-2.951 2.74-4.005 1.16-1.159 2.53-2.002 4.216-2.635 1.581-.632 3.267-.948 5.164-.948 1.897 0 3.584.316 5.27.948a13.544 13.544 0 014.216 2.635c1.159 1.159 2.108 2.529 2.74 4.005.632 1.581.948 3.267.948 5.164 0 1.897-.316 3.584-.948 5.165-.632 1.58-1.581 2.951-2.74 4.11-1.16 1.159-2.53 2.108-4.216 2.74-1.581.632-3.373.949-5.27.949-1.897 0-3.689-.317-5.269-.949-1.581-.632-2.951-1.581-4.216-2.74-1.159-1.159-2.108-2.53-2.74-4.11-.633-1.581-.949-3.268-.949-5.165.105-1.897.422-3.583 1.054-5.164zm6.113 8.958c.527 1.054 1.37 2.003 2.424 2.53 1.054.632 2.213.948 3.583.948s2.53-.316 3.584-.948c1.054-.633 1.791-1.476 2.424-2.53.632-1.054.843-2.424.843-3.794 0-1.475-.316-2.74-.843-3.794-.527-1.054-1.37-2.002-2.424-2.529-1.054-.633-2.214-.949-3.689-.949-1.37 0-2.53.316-3.584.949-1.053.632-1.791 1.475-2.424 2.529-.527 1.054-.843 2.424-.843 3.794.106 1.476.422 2.74.949 3.794zm82.841 3.584h10.539v4.848h-16.231V137.98h16.231v4.848h-10.539v4.321h9.907v4.743h-9.907v5.691zm1.791-22.449l-2.951-1.475 5.27-5.586 4.005 1.897-6.324 5.164zm12.748-47.11h4.743l-11.91 25.716-11.909-25.716h4.742l7.167 17.179 7.167-17.18zm-40.046 24.451h-4.11V88.024h7.483c1.791 0 3.267.316 4.637.948 1.265.633 2.319 1.476 3.056 2.635.738 1.16 1.054 2.424 1.054 4.005 0 1.792-.527 3.267-1.475 4.532-.949 1.265-2.319 2.108-4.005 2.635l6.85 9.696h-4.953l-6.218-9.275h-2.53v9.275h.211zm3.267-12.647c1.37 0 2.53-.316 3.373-1.054.843-.738 1.265-1.686 1.265-3.057 0-1.264-.422-2.318-1.265-3.056s-2.003-1.054-3.373-1.054h-3.267v8.22h3.267zm-30.144 8.958h10.75v3.584h-14.755V88.024h14.755v3.583h-10.75v5.902h10.118v3.583h-10.118v7.694zm-32.777-20.762v9.38h12.225v-9.38h4.111v24.346h-4.111v-11.172h-12.225v11.172h-4.111V88.024h4.111zm118.25 20.762h10.75v3.583h-14.755V88.023h14.755v3.584h-10.75v5.902h10.118v3.583h-10.118v7.694zm2.002-23.397l-2.108-1.265 5.27-5.586 3.162 1.581-6.324 5.27zM115.551 62.52h11.172v1.791h-13.174V39.966h13.174v1.791h-11.172v8.326h10.54v1.792h-10.54V62.52zm111.717 1.79h-2.108l10.75-25.295 10.75 25.295h-2.107l-3.373-8.22h-10.539l-3.373 8.22zm13.069-10.013l-4.427-10.855-4.532 10.855h8.959zM187.008 64.31h-1.897l2.846-25.295 9.802 18.76 9.801-18.76 2.846 25.295h-1.897l-2.108-19.182-8.537 16.336-8.537-16.336-2.319 19.182zm-41.312 0h-1.897l2.845-25.295 9.802 18.76 9.802-18.76 2.845 25.295h-1.897l-2.108-19.182-8.537 16.336-8.536-16.336-2.319 19.182z" fill="#4F4C6E"/></g><defs><clipPath id="clip0"><path fill="#fff" d="M0 0h360v202.5H0z"/></clipPath></defs></svg>
